X:192 
T:Setting of the Sun (reel), The
S:Sheahan MS
F:file ID: cre.4/192setting
B:CRE4.103 (Dul Faoi na GrÃÂÃÂÃÂÃÂ©ine)
N:Source had 'scribal errors' in mm 2 and 6 which I have
corrected.
L:1/8
Q:180
M:4/4
R:reel
K:D
(3ABc|dDDG F2 (3DEF|GABc dfec|d2 (3cBA BAFA|BGBc dfec|
dDDG F2 (3DEF|GABc dfec|d2dc dfed|BGBc d2:|
|:ec|defg a2 fd|cdef g2 fe|defg abaf|g2 fd eB B2|
defg a2 fd|cdef gfef|gbag fagf|1 edBc df:|2 edBc dfec|\
"final"d8|]

%%%

